X:83
T:Finbar Dwyer's Favorite
R:jig
M:6/8
L:1/8
K:Dmix
|FGA cAA|BAG cAG|FGA cAG|Ad^c ~d3|
|FGA cAG|Adg fef|dcA GEA|DED D2 G|
|FGA cAA|BAG cAG|FGA cAG|Ad^c ~d3|
|DED cAG|Adg fde|dcA GEA|DED D(3EFG||
|:A2 d d^cd|fag efd|dcA GFG|AdB cAG|
|Add d^cd|fag efd|dcA GEA|1 DED D3:|2 DED D2 G||

